outputs/icons/action/clock_round.svg

<svg xmlns="http://www.w3.org/2000/svg" width="1200" height="1200" fill="none"><g clip-path="url(#a)"><path fill="#000" d="M600 100c-275 0-500 225-500 500s225 500 500 500 500-225 500-500-225-500-500-500m177.5 690-204-125.5c-15-9-24-25-24-42.5V387.5c.5-20.5 17.5-37.5 38-37.5s37.5 17 37.5 37.5V610l192 115.5c18 11 24 34.5 13 52.5-11 17.5-34.5 23-52.5 12"/></g><defs><clipPath id="a"><path fill="#fff" d="M0 0h1200v1200H0z"/></clipPath></defs></svg>

<svg width="1200" height="1200" viewBox="0 0 1200 1200" fill="none" xmlns="http://www.w3.org/2000/svg"><g clip-path="url(#clip0_223_1886)"><path d="M600 100C325 100 100 325 100 600C100 875 325 1100 600 1100C875 1100 1100 875 1100 600C1100 325 875 100 600 100ZM777.5 790L573.5 664.5C558.5 655.5 549.5 639.5 549.5 622V387.5C550 367 567 350 587.5 350C608 350 625 367 625 387.5V610L817 725.5C835 736.5 841 760 830 778C819 795.5 795.5 801 777.5 790Z" fill="black"/></g><defs><clipPath id="clip0_223_1886"><path width="24" fill="white" d="M0 0H1200V1200H0V0z"/></clipPath></defs></svg>
